X: 3248
T: Behind The Bush In The Garden
R: jig
M: 6/8
K: Bminor
|:d2B BAF|d2B BAF|A2A A2F|A3 F3
B3 d2e|f2f f2e|d2B cBA|1 B3 B2c:|2 B3 B2A||
|:BBB d2e|f2f f3|BBB d2e|f3 B3|
BBB d2e|f2f f2e|d2B cBA|1 B3 B2A:|2 B3 B3||

